assets/icons/icons8-linkedin-circled.svg

<?xml version="1.0" encoding="UTF-8"?>
<svg xmlns="http://www.w3.org/2000/svg" xmlns:xlink="http://www.w3.org/1999/xlink" viewBox="0 0 30 30" width="30px" height="30px">
<g id="surface151907577">
<path style=" stroke:none;fill-rule:nonzero;fill:rgb(17.647059%,47.843137%,0.784314%);fill-opacity:1;" d="M 15 3 C 8.371094 3 3 8.371094 3 15 C 3 21.628906 8.371094 27 15 27 C 21.628906 27 27 21.628906 27 15 C 27 8.371094 21.628906 3 15 3 Z M 10.496094 8.402344 C 11.339844 8.402344 11.898438 8.964844 11.898438 9.710938 C 11.898438 10.460938 11.339844 11.019531 10.402344 11.019531 C 9.5625 11.023438 9 10.460938 9 9.710938 C 9 8.964844 9.5625 8.402344 10.496094 8.402344 Z M 12 20 L 9 20 L 9 12 L 12 12 Z M 22 20 L 19.175781 20 L 19.175781 15.628906 C 19.175781 14.417969 18.421875 14.140625 18.140625 14.140625 C 17.859375 14.140625 16.917969 14.324219 16.917969 15.628906 C 16.917969 15.8125 16.917969 20 16.917969 20 L 14 20 L 14 12 L 16.917969 12 L 16.917969 13.117188 C 17.292969 12.464844 18.046875 12 19.460938 12 C 20.871094 12 22 13.117188 22 15.628906 Z M 22 20 "/>
</g>
</svg>

<?xml version="1.0"?><svg fill="#000000" xmlns="http://www.w3.org/2000/svg"  viewBox="0 0 30 30" width="16px" height="16px">    <path d="M15,3C8.373,3,3,8.373,3,15c0,6.627,5.373,12,12,12s12-5.373,12-12C27,8.373,21.627,3,15,3z M10.496,8.403 c0.842,0,1.403,0.561,1.403,1.309c0,0.748-0.561,1.309-1.496,1.309C9.561,11.022,9,10.46,9,9.712C9,8.964,9.561,8.403,10.496,8.403z M12,20H9v-8h3V20z M22,20h-2.824v-4.372c0-1.209-0.753-1.488-1.035-1.488s-1.224,0.186-1.224,1.488c0,0.186,0,4.372,0,4.372H14v-8 h2.918v1.116C17.294,12.465,18.047,12,19.459,12C20.871,12,22,13.116,22,15.628V20z"/></svg>
